lib/brands/icons/google-lighthouse.svg

<svg xmlns="http://www.w3.org/2000/svg" fill="none" aria-hidden="true" viewBox="0 0 48 48"><g id="google-lighthouse-Icon"><g id="Group"><path id="Vector" fill="#0535C1" d="M24 42C33.9411 42 42 33.9411 42 24C42 14.0589 33.9411 6 24 6C14.0589 6 6 14.0589 6 24C6 33.9411 14.0589 42 24 42Z"/><g id="Group_2"><mask id="mask0_94_17760" width="11" height="8" x="28" y="16" maskUnits="userSpaceOnUse" style="mask-type:alpha"><g id="mask-2"><path id="Vector_2" fill="white" d="M35.8638 18.6135H34.7868C34.3303 17.3218 33.1003 16.3977 31.6533 16.3977C29.8186 16.3977 28.3296 17.8867 28.3296 19.7214C28.3296 21.5562 29.8186 23.0455 31.6533 23.0455H35.8638C37.0875 23.045 38.0793 22.053 38.0796 20.8294C38.0791 19.6058 37.0873 18.614 35.8638 18.6135Z"/></g></mask><g mask="url(#mask0_94_17760)"><g id="Group_3"><path id="Vector_3" fill="#EAEAEA" d="M35.8638 18.6135H34.7868C34.3303 17.3218 33.1003 16.3977 31.6533 16.3977C29.8186 16.3977 28.3296 17.8867 28.3296 19.7214C28.3296 21.5562 29.8186 23.0455 31.6533 23.0455H35.8638C37.0875 23.045 38.0793 22.053 38.0796 20.8294C38.0791 19.6058 37.0873 18.614 35.8638 18.6135Z"/><path id="Vector_4" fill="white" fill-opacity="0.2" d="M38.0794 20.856V20.8293C38.0789 19.6058 37.0871 18.614 35.8636 18.6135H34.7554V18.6687H35.8636C37.0763 18.669 38.0636 19.6438 38.0794 20.8563V20.856Z"/><path id="Vector_5" fill="url(#paint0_linear_94_17760)" d="M39.2206 23.0455H31.6533L34.789 18.6135L39.2206 23.0455Z"/><g id="Group_4"><mask id="mask1_94_17760" width="8" height="6" x="31" y="18" maskUnits="userSpaceOnUse" style="mask-type:alpha"><g id="mask-5"><path id="Vector_6" fill="white" d="M35.8635 18.6135H31.6533V23.0452H35.8635C37.087 23.0447 38.0788 22.0529 38.0793 20.8293C38.0788 19.6058 37.087 18.614 35.8635 18.6135Z"/></g></mask><g mask="url(#mask1_94_17760)"><g id="Group_5"><g id="Group_6"><g id="Vector_7" filter="url(#filter0_d_94_17760)"><path fill="black" d="M31.6533 16.3977L33.4503 22.0726C34.0505 21.4697 34.9771 20.6388 34.9771 19.7214C34.9771 17.8867 33.4881 16.3977 31.6533 16.3977Z"/></g><path id="Vector_8" fill="#E1E1E1" d="M31.6533 16.3977L33.4503 22.0726C34.0505 21.4697 34.9771 20.6388 34.9771 19.7214C34.9771 17.8867 33.4881 16.3977 31.6533 16.3977Z"/></g></g></g></g><path id="Vector_9" fill="#EEEEEE" d="M31.6533 23.0452C33.489 23.0452 34.9771 21.5571 34.9771 19.7214C34.9771 17.8858 33.489 16.3977 31.6533 16.3977C29.8177 16.3977 28.3296 17.8858 28.3296 19.7214C28.3296 21.5571 29.8177 23.0452 31.6533 23.0452Z"/><path id="Vector_10" fill="white" fill-opacity="0.2" d="M31.6533 16.4529C33.4792 16.4529 34.9617 17.9266 34.9774 19.7503V19.7239C34.9774 17.8891 33.4881 16.3998 31.6533 16.3998C29.8186 16.3998 28.3296 17.8867 28.3296 19.7214V19.7481C28.3449 17.9266 29.8275 16.4529 31.6533 16.4529Z"/><path id="Vector_11" fill="#212121" fill-opacity="0.1" d="M35.8638 22.99H31.6533C29.8278 22.99 28.3452 21.5163 28.3296 19.6929V19.7196C28.3296 21.5544 29.8186 23.0433 31.6533 23.0433H35.8638C37.0873 23.0428 38.0791 22.0511 38.0796 20.8275V20.8011C38.0643 22.0142 37.0769 22.9897 35.8638 22.9903V22.99Z"/></g></g></g><path id="Vector_12" fill="url(#paint1_radial_94_17760)" d="M35.8638 18.6135H34.7868C34.3303 17.3218 33.1003 16.3977 31.6533 16.3977C29.8186 16.3977 28.3296 17.8867 28.3296 19.7214C28.3296 21.5562 29.8186 23.0455 31.6533 23.0455H35.8638C37.0875 23.045 38.0793 22.053 38.0796 20.8294C38.0791 19.6058 37.0873 18.614 35.8638 18.6135Z"/><path id="Vector_13" fill="#FFF176" d="M19.0908 13.5682H28.5V21.7501H19.0908V13.5682Z"/><path id="Vector_14" fill="white" d="M18.0679 26.0452H29.3179V37.2953H18.0679V26.0452Z"/><path id="Vector_15" fill="#F4481E" d="M30.5451 20.9318H32.1813V24.2043H15.8179V20.9318H17.4541V14.3862L23.9997 10.2954L30.5451 14.3862V20.9318ZM27.2722 20.9318V16.2001L23.9997 14.1552L20.7269 16.2001V20.9318H27.2722Z"/><path id="Vector_16" fill="#F4481E" d="M15.0913 39.6443L17.8637 20.9315H30.1364L32.9084 39.6443C30.2818 41.1434 27.2409 41.9997 24 41.9997C20.7591 41.9997 17.7183 41.1434 15.0913 39.6443ZM27.6643 26.5773L19.9651 29.079L19.0293 35.3949L28.5142 32.3126L27.6643 26.5769V26.5773Z"/><path id="Vector_17" fill="url(#paint2_linear_94_17760)" d="M30.5298 24.2043L32.8171 39.6443C30.1905 41.1434 27.1496 41.9997 23.9087 41.9997C20.6678 41.9997 17.627 41.1434 15 39.6443L17.2876 24.2043H15.8183V20.9318H17.4545V14.3862L24.0002 10.2954L30.5455 14.3862V20.9318H32.1817V24.2043H30.5301H30.5298Z"/><path id="Vector_18" fill="url(#paint3_linear_94_17760)" d="M24.0002 20.9318H17.4546V14.3862L24.0002 10.2954V20.9318Z"/><path id="Vector_19" fill="url(#paint4_linear_94_17760)" d="M24 41.9997C20.8763 42.0015 17.806 41.1897 15.0913 39.6443L17.1424 24.2043H23.9997V41.9997H24Z"/><path id="Vector_20" fill="url(#paint5_linear_94_17760)" d="M24 20.9318H15.8181V24.2046H24V20.9318Z"/><path id="Vector_21" fill="url(#paint6_radial_94_17760)" d="M24 42C33.9411 42 42 33.9411 42 24C42 14.0589 33.9411 6 24 6C14.0589 6 6 14.0589 6 24C6 33.9411 14.0589 42 24 42Z"/><g id="Group_7"><mask id="mask2_94_17760" width="12" height="8" x="10" y="20" maskUnits="userSpaceOnUse" style="mask-type:alpha"><g id="mask-15"><path id="Vector_22" fill="white" d="M19.0905 22.7724H17.8479C17.3214 21.2819 15.9024 20.2157 14.2327 20.2157C12.1156 20.2157 10.3975 21.9339 10.3975 24.0509C10.3975 26.168 12.1156 27.8861 14.2327 27.8861H19.0905C20.5018 27.8861 21.6475 26.7408 21.6475 25.3294C21.6475 23.9181 20.5018 22.7724 19.0905 22.7724Z"/></g></mask><g mask="url(#mask2_94_17760)"><g id="Group_8"><path id="Vector_23" fill="#FAFAFA" d="M19.0905 22.7724H17.8479C17.3214 21.2819 15.9024 20.2157 14.2327 20.2157C12.1156 20.2157 10.3975 21.9339 10.3975 24.0509C10.3975 26.168 12.1156 27.8861 14.2327 27.8861H19.0905C20.5018 27.8861 21.6475 26.7408 21.6475 25.3294C21.6475 23.9181 20.5018 22.7724 19.0905 22.7724Z"/><path id="Vector_24" fill="white" fill-opacity="0.2" d="M21.6477 25.3601V25.3295C21.6477 23.9181 20.5021 22.7724 19.0907 22.7724H17.8125V22.8366H19.0907C20.4899 22.8366 21.6292 23.9611 21.6477 25.3601Z"/><path id="Vector_25" fill="url(#paint7_linear_94_17760)" d="M22.9643 27.8862H14.2329L17.8509 22.7724L22.9643 27.8862Z"/><g id="Group_9"><mask id="mask3_94_17760" width="8" height="6" x="14" y="22" maskUnits="userSpaceOnUse" style="mask-type:alpha"><g id="mask-18"><path id="Vector_26" fill="white" d="M19.0907 22.7724H14.2329V27.8862H19.0907C20.5021 27.8862 21.6477 26.7405 21.6477 25.3291C21.6477 23.9178 20.5021 22.7724 19.0907 22.7724Z"/></g></mask><g mask="url(#mask3_94_17760)"><g id="Group_10"><g id="Group_11"><g id="Vector_27" filter="url(#filter1_d_94_17760)"><path fill="black" d="M14.2329 20.2157L16.3064 26.7638C16.9995 26.0682 18.0681 25.1094 18.0681 24.0509C18.0681 21.9339 16.3499 20.2157 14.2329 20.2157Z"/></g><path id="Vector_28" fill="#E1E1E1" d="M14.2329 20.2157L16.3064 26.7638C16.9995 26.0682 18.0681 25.1094 18.0681 24.0509C18.0681 21.9339 16.3499 20.2157 14.2329 20.2157Z"/></g></g></g></g><path id="Vector_29" fill="white" d="M14.2327 27.8861C16.3508 27.8861 18.0679 26.1691 18.0679 24.0509C18.0679 21.9328 16.3508 20.2157 14.2327 20.2157C12.1145 20.2157 10.3975 21.9328 10.3975 24.0509C10.3975 26.1691 12.1145 27.8861 14.2327 27.8861Z"/><path id="Vector_30" fill="white" fill-opacity="0.2" d="M14.2327 20.2796C16.3396 20.2796 18.0501 21.9799 18.0679 24.0841V24.0534C18.0679 21.9364 16.3497 20.2182 14.2327 20.2182C12.1156 20.2182 10.3975 21.9339 10.3975 24.051V24.0816C10.4153 21.9799 12.1258 20.2796 14.2327 20.2796Z"/><path id="Vector_31" fill="#212121" fill-opacity="0.1" d="M19.0905 27.8223H14.2327C12.1258 27.8223 10.4153 26.122 10.3975 24.0178V24.0485C10.3975 26.1655 12.1156 27.8837 14.2327 27.8837H19.0905C20.5018 27.8837 21.6475 26.738 21.6475 25.3267V25.296C21.6294 26.6948 20.4917 27.8223 19.0905 27.8223Z"/></g></g></g><path id="Vector_32" fill="url(#paint8_radial_94_17760)" d="M19.0905 22.7724H17.8479C17.3214 21.2819 15.9024 20.2157 14.2327 20.2157C12.1156 20.2157 10.3975 21.9339 10.3975 24.0509C10.3975 26.168 12.1156 27.8861 14.2327 27.8861H19.0905C20.5018 27.8861 21.6475 26.7408 21.6475 25.3294C21.6475 23.9181 20.5018 22.7724 19.0905 22.7724Z"/><g id="Group_12" opacity="0.1"><path id="Vector_33" fill="white" d="M24 6.18808C33.9102 6.18808 41.9466 14.196 41.9979 24.0939C41.9979 24.0632 41.9997 24.0325 41.9997 24C41.9997 14.0591 33.9409 6 24 6C14.0591 6 6 14.0591 6 24C6 24.0307 6.00215 24.0614 6.00215 24.0939C6.05308 14.196 14.0898 6.18808 24 6.18808Z" opacity="0.1"/><path id="Vector_34" fill="#263238" d="M41.9979 23.9058C41.9466 33.8037 33.9102 41.8116 24 41.8116C14.0898 41.8116 6.05308 33.8037 6.00215 23.9058C6.00215 23.9386 6 23.9693 6 24C6 33.9409 14.0591 41.9997 24 41.9997C33.9409 41.9997 41.9997 33.9409 41.9997 24C41.9997 23.9693 41.9979 23.9386 41.9979 23.9058Z" opacity="0.1"/></g><path id="Vector_35" fill="url(#paint9_radial_94_17760)" d="M24 42C33.9411 42 42 33.9411 42 24C42 14.0589 33.9411 6 24 6C14.0589 6 6 14.0589 6 24C6 33.9411 14.0589 42 24 42Z"/></g></g><defs><filter id="filter0_d_94_17760" width="11.3237" height="13.6749" x="27.6533" y="14.3977" color-interpolation-filters="sRGB" filterUnits="userSpaceOnUse"><feFlood flood-opacity="0" result="BackgroundImageFix"/><feColorMatrix in="SourceAlpha" result="hardAlpha" values="0 0 0 0 0 0 0 0 0 0 0 0 0 0 0 0 0 0 127 0"/><feOffset dy="2"/><feGaussianBlur stdDeviation="2"/><feColorMatrix values="0 0 0 0 0 0 0 0 0 0 0 0 0 0 0 0 0 0 0.2 0"/><feBlend in2="BackgroundImageFix" result="effect1_dropShadow_94_17760"/><feBlend in="SourceGraphic" in2="effect1_dropShadow_94_17760" result="shape"/></filter><filter id="filter1_d_94_17760" width="11.8354" height="14.5481" x="10.2329" y="18.2157" color-interpolation-filters="sRGB" filterUnits="userSpaceOnUse"><feFlood flood-opacity="0" result="BackgroundImageFix"/><feColorMatrix in="SourceAlpha" result="hardAlpha" values="0 0 0 0 0 0 0 0 0 0 0 0 0 0 0 0 0 0 127 0"/><feOffset dy="2"/><feGaussianBlur stdDeviation="2"/><feColorMatrix values="0 0 0 0 0 0 0 0 0 0 0 0 0 0 0 0 0 0 0.1 0"/><feBlend in2="BackgroundImageFix" result="effect1_dropShadow_94_17760"/><feBlend in="SourceGraphic" in2="effect1_dropShadow_94_17760" result="shape"/></filter><linearGradient id="paint0_linear_94_17760" x1="35.4365" x2="35.4365" y1="18.6235" y2="23.0333" gradientUnits="userSpaceOnUse"><stop stop-color="#212121" stop-opacity="0.04"/><stop offset="0.66" stop-color="#212121" stop-opacity="0"/></linearGradient><radialGradient id="paint1_radial_94_17760" cx="0" cy="0" r="1" gradientTransform="translate(21.901 17.346) scale(9.61039)" gradientUnits="userSpaceOnUse"><stop stop-color="white" stop-opacity="0.1"/><stop offset="1" stop-color="white" stop-opacity="0"/></radialGradient><linearGradient id="paint2_linear_94_17760" x1="21.5257" x2="34.1295" y1="16.7498" y2="37.5185" gradientUnits="userSpaceOnUse"><stop stop-color="white" stop-opacity="0.1"/><stop offset="1" stop-color="white" stop-opacity="0"/></linearGradient><linearGradient id="paint3_linear_94_17760" x1="21.9668" x2="18.7089" y1="17.2895" y2="15.7035" gradientUnits="userSpaceOnUse"><stop stop-color="#262626" stop-opacity="0.1"/><stop offset="1" stop-color="#262626" stop-opacity="0"/></linearGradient><linearGradient id="paint4_linear_94_17760" x1="20.662" x2="11.5055" y1="26.533" y2="37.2073" gradientUnits="userSpaceOnUse"><stop stop-color="#262626" stop-opacity="0.1"/><stop offset="1" stop-color="#262626" stop-opacity="0"/></linearGradient><linearGradient id="paint5_linear_94_17760" x1="24" x2="15.8181" y1="22.5682" y2="22.5682" gradientUnits="userSpaceOnUse"><stop stop-color="#262626" stop-opacity="0.1"/><stop offset="1" stop-color="#262626" stop-opacity="0"/></linearGradient><radialGradient id="paint6_radial_94_17760" cx="0" cy="0" r="1" gradientTransform="translate(11.216 11.25) scale(35.9903)" gradientUnits="userSpaceOnUse"><stop stop-color="white" stop-opacity="0.1"/><stop offset="1" stop-color="white" stop-opacity="0"/></radialGradient><linearGradient id="paint7_linear_94_17760" x1="18.5981" x2="18.5981" y1="22.784" y2="27.8721" gradientUnits="userSpaceOnUse"><stop stop-color="#212121" stop-opacity="0.04"/><stop offset="0.66" stop-color="#212121" stop-opacity="0"/></linearGradient><radialGradient id="paint8_radial_94_17760" cx="0" cy="0" r="1" gradientTransform="translate(9.778 21.31) scale(11.0889)" gradientUnits="userSpaceOnUse"><stop stop-color="white" stop-opacity="0.1"/><stop offset="1" stop-color="white" stop-opacity="0"/></radialGradient><radialGradient id="paint9_radial_94_17760" cx="0" cy="0" r="1" gradientTransform="translate(11.216 11.25) scale(35.9903)" gradientUnits="userSpaceOnUse"><stop stop-color="white" stop-opacity="0.1"/><stop offset="1" stop-color="white" stop-opacity="0"/></radialGradient></defs></svg>

<svg xmlns="http://www.w3.org/2000/svg" fill="none" aria-hidden="true" viewBox="0 0 48 48"><path fill="#0535C1" d="M24 42c9.941 0 18-8.059 18-18S33.941 6 24 6 6 14.059 6 24s8.059 18 18 18Z"/><mask id="a" width="11" height="8" x="28" y="16" maskUnits="userSpaceOnUse" style="mask-type:alpha"><path fill="#fff" d="M35.864 18.613h-1.077a3.323 3.323 0 1 0-3.134 4.433h4.21a2.217 2.217 0 0 0 0-4.433Z"/></mask><g mask="url(#a)"><path fill="#EAEAEA" d="M35.864 18.613h-1.077a3.323 3.323 0 1 0-3.134 4.433h4.21a2.217 2.217 0 0 0 0-4.433Z"/><path fill="#fff" fill-opacity=".2" d="M38.08 20.856v-.027a2.217 2.217 0 0 0-2.216-2.216h-1.109v.056h1.108c1.213 0 2.2.975 2.216 2.187Z"/><path fill="url(#b)" d="M39.22 23.046h-7.567l3.136-4.433 4.431 4.433Z"/><mask id="c" width="8" height="6" x="31" y="18" maskUnits="userSpaceOnUse" style="mask-type:alpha"><path fill="#fff" d="M35.863 18.613h-4.21v4.432h4.21a2.217 2.217 0 0 0 0-4.432Z"/></mask><g mask="url(#c)"><g filter="url(#d)"><path fill="#000" d="m31.653 16.398 1.797 5.675c.6-.603 1.527-1.434 1.527-2.352a3.325 3.325 0 0 0-3.324-3.323Z"/></g><path fill="#E1E1E1" d="m31.653 16.398 1.797 5.675c.6-.603 1.527-1.434 1.527-2.352a3.325 3.325 0 0 0-3.324-3.323Z"/></g><path fill="#EEE" d="M31.653 23.045a3.324 3.324 0 1 0 0-6.647 3.324 3.324 0 0 0 0 6.647Z"/><path fill="#fff" fill-opacity=".2" d="M31.653 16.453a3.326 3.326 0 0 1 3.324 3.297v-.026a3.323 3.323 0 0 0-6.648-.003v.027a3.325 3.325 0 0 1 3.324-3.295Z"/><path fill="#212121" fill-opacity=".1" d="M35.864 22.99h-4.21a3.326 3.326 0 0 1-3.325-3.297v.027a3.325 3.325 0 0 0 3.324 3.323h4.21a2.217 2.217 0 0 0 2.216-2.215V20.8a2.217 2.217 0 0 1-2.215 2.19v-.001Z"/></g><path fill="url(#e)" d="M35.864 18.613h-1.077a3.323 3.323 0 1 0-3.134 4.433h4.21a2.217 2.217 0 0 0 0-4.433Z"/><path fill="#FFF176" d="M19.09 13.568h9.41v8.182h-9.41v-8.182Z"/><path fill="#fff" d="M18.068 26.045h11.25v11.25h-11.25v-11.25Z"/><path fill="#F4481E" d="M30.545 20.932h1.637v3.272H15.818v-3.272h1.636v-6.546L24 10.296l6.545 4.09v6.546Zm-3.273 0V16.2L24 14.155 20.727 16.2v4.732h6.546Z"/><path fill="#F4481E" d="m15.091 39.644 2.773-18.712h12.272l2.772 18.712A17.916 17.916 0 0 1 24 42c-3.24 0-6.282-.857-8.909-2.356Zm12.573-13.067-7.699 2.502-.936 6.316 9.485-3.082-.85-5.736Z"/><path fill="url(#f)" d="m30.53 24.204 2.287 15.44A17.916 17.916 0 0 1 23.908 42 17.92 17.92 0 0 1 15 39.644l2.287-15.44h-1.469v-3.272h1.636v-6.546L24 10.296l6.545 4.09v6.546h1.636v3.272H30.53Z"/><path fill="url(#g)" d="M24 20.932h-6.546v-6.546L24 10.296v10.636Z"/><path fill="url(#h)" d="M24 42a17.987 17.987 0 0 1-8.909-2.356l2.051-15.44H24V42Z"/><path fill="url(#i)" d="M24 20.932h-8.182v3.273H24v-3.273Z"/><path fill="url(#j)" d="M24 42c9.941 0 18-8.059 18-18S33.941 6 24 6 6 14.059 6 24s8.059 18 18 18Z"/><mask id="k" width="12" height="8" x="10" y="20" maskUnits="userSpaceOnUse" style="mask-type:alpha"><path fill="#fff" d="M19.09 22.772h-1.242a3.833 3.833 0 0 0-3.615-2.556 3.837 3.837 0 0 0-3.835 3.835 3.837 3.837 0 0 0 3.835 3.835h4.858a2.558 2.558 0 0 0 0-5.114Z"/></mask><g mask="url(#k)"><path fill="#FAFAFA" d="M19.09 22.772h-1.242a3.833 3.833 0 0 0-3.615-2.556 3.837 3.837 0 0 0-3.835 3.835 3.837 3.837 0 0 0 3.835 3.835h4.858a2.558 2.558 0 0 0 0-5.114Z"/><path fill="#fff" fill-opacity=".2" d="M21.648 25.36v-.03a2.558 2.558 0 0 0-2.557-2.558h-1.278v.065h1.278a2.557 2.557 0 0 1 2.557 2.523Z"/><path fill="url(#l)" d="M22.964 27.886h-8.731l3.618-5.114 5.113 5.114Z"/><mask id="m" width="8" height="6" x="14" y="22" maskUnits="userSpaceOnUse" style="mask-type:alpha"><path fill="#fff" d="M19.09 22.772h-4.857v5.114h4.858a2.558 2.558 0 0 0 0-5.114Z"/></mask><g mask="url(#m)"><g filter="url(#n)"><path fill="#000" d="m14.233 20.216 2.073 6.548c.694-.696 1.762-1.655 1.762-2.713a3.837 3.837 0 0 0-3.835-3.835Z"/></g><path fill="#E1E1E1" d="m14.233 20.216 2.073 6.548c.694-.696 1.762-1.655 1.762-2.713a3.837 3.837 0 0 0-3.835-3.835Z"/></g><path fill="#fff" d="M14.233 27.886a3.835 3.835 0 1 0 0-7.67 3.835 3.835 0 0 0 0 7.67Z"/><path fill="#fff" fill-opacity=".2" d="M14.233 20.28c2.107 0 3.817 1.7 3.835 3.804v-.03a3.835 3.835 0 0 0-7.67-.002v.03a3.836 3.836 0 0 1 3.835-3.802Z"/><path fill="#212121" fill-opacity=".1" d="M19.09 27.822h-4.857a3.837 3.837 0 0 1-3.835-3.804v.03a3.837 3.837 0 0 0 3.835 3.836h4.858a2.558 2.558 0 0 0 2.557-2.557v-.031a2.558 2.558 0 0 1-2.557 2.526Z"/></g><path fill="url(#o)" d="M19.09 22.772h-1.242a3.833 3.833 0 0 0-3.615-2.556 3.837 3.837 0 0 0-3.835 3.835 3.837 3.837 0 0 0 3.835 3.835h4.858a2.558 2.558 0 0 0 0-5.114Z"/><g opacity=".1"><path fill="#fff" d="M24 6.188c9.91 0 17.947 8.008 17.998 17.906L42 24c0-9.94-8.06-18-18-18S6 14.06 6 24l.002.094C6.053 14.196 14.09 6.188 24 6.188Z" opacity=".1"/><path fill="#263238" d="M41.998 23.906C41.947 33.804 33.91 41.812 24 41.812c-9.91 0-17.947-8.008-17.998-17.906L6 24c0 9.94 8.06 18 18 18s18-8.06 18-18l-.002-.094Z" opacity=".1"/></g><path fill="url(#p)" d="M24 42c9.941 0 18-8.059 18-18S33.941 6 24 6 6 14.059 6 24s8.059 18 18 18Z"/><defs><linearGradient id="b" x1="35.436" x2="35.436" y1="18.623" y2="23.033" gradientUnits="userSpaceOnUse"><stop stop-color="#212121" stop-opacity=".04"/><stop offset=".66" stop-color="#212121" stop-opacity="0"/></linearGradient><linearGradient id="f" x1="21.526" x2="34.129" y1="16.75" y2="37.519" gradientUnits="userSpaceOnUse"><stop stop-color="#fff" stop-opacity=".1"/><stop offset="1" stop-color="#fff" stop-opacity="0"/></linearGradient><linearGradient id="g" x1="21.967" x2="18.709" y1="17.29" y2="15.704" gradientUnits="userSpaceOnUse"><stop stop-color="#262626" stop-opacity=".1"/><stop offset="1" stop-color="#262626" stop-opacity="0"/></linearGradient><linearGradient id="h" x1="20.662" x2="11.505" y1="26.533" y2="37.207" gradientUnits="userSpaceOnUse"><stop stop-color="#262626" stop-opacity=".1"/><stop offset="1" stop-color="#262626" stop-opacity="0"/></linearGradient><linearGradient id="i" x1="24" x2="15.818" y1="22.568" y2="22.568" gradientUnits="userSpaceOnUse"><stop stop-color="#262626" stop-opacity=".1"/><stop offset="1" stop-color="#262626" stop-opacity="0"/></linearGradient><linearGradient id="l" x1="18.598" x2="18.598" y1="22.784" y2="27.872" gradientUnits="userSpaceOnUse"><stop stop-color="#212121" stop-opacity=".04"/><stop offset=".66" stop-color="#212121" stop-opacity="0"/></linearGradient><radialGradient id="e" cx="0" cy="0" r="1" gradientTransform="translate(21.901 17.346) scale(9.61039)" gradientUnits="userSpaceOnUse"><stop stop-color="#fff" stop-opacity=".1"/><stop offset="1" stop-color="#fff" stop-opacity="0"/></radialGradient><radialGradient id="j" cx="0" cy="0" r="1" gradientTransform="translate(11.216 11.25) scale(35.9903)" gradientUnits="userSpaceOnUse"><stop stop-color="#fff" stop-opacity=".1"/><stop offset="1" stop-color="#fff" stop-opacity="0"/></radialGradient><radialGradient id="o" cx="0" cy="0" r="1" gradientTransform="translate(9.778 21.31) scale(11.0889)" gradientUnits="userSpaceOnUse"><stop stop-color="#fff" stop-opacity=".1"/><stop offset="1" stop-color="#fff" stop-opacity="0"/></radialGradient><radialGradient id="p" cx="0" cy="0" r="1" gradientTransform="translate(11.216 11.25) scale(35.9903)" gradientUnits="userSpaceOnUse"><stop stop-color="#fff" stop-opacity=".1"/><stop offset="1" stop-color="#fff" stop-opacity="0"/></radialGradient><filter id="d" width="11.324" height="13.675" x="27.653" y="14.398" color-interpolation-filters="sRGB" filterUnits="userSpaceOnUse"><feFlood flood-opacity="0" result="BackgroundImageFix"/><feColorMatrix in="SourceAlpha" result="hardAlpha" values="0 0 0 0 0 0 0 0 0 0 0 0 0 0 0 0 0 0 127 0"/><feOffset dy="2"/><feGaussianBlur stdDeviation="2"/><feColorMatrix values="0 0 0 0 0 0 0 0 0 0 0 0 0 0 0 0 0 0 0.2 0"/><feBlend in2="BackgroundImageFix" result="effect1_dropShadow_5_1883"/><feBlend in="SourceGraphic" in2="effect1_dropShadow_5_1883" result="shape"/></filter><filter id="n" width="11.835" height="14.548" x="10.233" y="18.216" color-interpolation-filters="sRGB" filterUnits="userSpaceOnUse"><feFlood flood-opacity="0" result="BackgroundImageFix"/><feColorMatrix in="SourceAlpha" result="hardAlpha" values="0 0 0 0 0 0 0 0 0 0 0 0 0 0 0 0 0 0 127 0"/><feOffset dy="2"/><feGaussianBlur stdDeviation="2"/><feColorMatrix values="0 0 0 0 0 0 0 0 0 0 0 0 0 0 0 0 0 0 0.1 0"/><feBlend in2="BackgroundImageFix" result="effect1_dropShadow_5_1883"/><feBlend in="SourceGraphic" in2="effect1_dropShadow_5_1883" result="shape"/></filter></defs></svg>
